!!!OTL: Verzweiflung.
!!!OTL-incipit: SCHAETZLEIN SAG MIRS FUER GEWISS
!!!ARE: Europa, Mitteleuropa, Deutschland, Niederrhein
!!!SCT: Z1172
!!!TXL: @@DE
!!!YEM: Copyright 1995, estate of Helmut Schaffrath.
**kern	**text
*ICvox	*
*M2/4	*
*k[b-e-]	*
*B-:	*
=1	=1
!LO:TX:a:t=Niederrheiniſch.	!
{8b-	Schätʒlein,
8b-	.
8a	ſag'
8cc	mir's
=2	=2
8b-	für
8g	ge-
8f	-wiß,
8r}	.
=3	=3
{8dd	warum
8dd	.
8cc	du
8dd	ſo
=4	=4
8ffqq	.
8ee-	traurig
8dd	.
8cc	biſt?
8r}	.
=5	=5
{8b-	Schätʒlein,
8b-	.
8a	ſag'
8cc	mir's
=6	=6
8b-	für
8g	ge-
8f	-wiß,
8r}	.
=7	=7
{8dd	warum
8dd	.
8cc	du
8dd	ſo
=8	=8
8ffqq	.
8ee-	traurig
8dd	.
8cc}	biſt?
{16f	o-
16f	-der
=9	=9
16b-	haſt
16cc	du
16dd	ei-
16b-	-ne
16f	An-
16a	-de-
16cc	-re
16cc	auf
=10	=10
16b-	dei-
16cc	-ne
16dd	Seit'
16b-	be-
16fL	-kom-
16aJ	.
16cc}	-men,
{16cc	und
=11	=11
8.ee-	die
16cc	dir
8.dd	noch
16b-	viel
=12	=12
16ddL	lie-
16ccJ	.
16b-L	-ber
16aJ	.
8b-	iſt?
8r}	.
==	==
!!!AGN: Liebes - Lied, Abschieds - Lied
!!!ONB: ESAC (Essen Associative Code) Database: ZUCCAL
!!!AMT: simple duple
!!!AIN: vox
!!!EED: Helmut Schaffrath
!!!EEV: 1.0
!!!GTL: V. Lieder der Minne.
!!!URL-scan: https://www.digitale-sammlungen.de/de/view/bsb11160573?page=363
!!!ENC: Anna Maria Matuszewska
!!!EEV: 2025/02/05
*-	*-
